static/img/kroki/e395d57143ad7f6482477f978810a511.svg

<?xml version="1.0" encoding="us-ascii" standalone="no"?><svg xmlns="http://www.w3.org/2000/svg" xmlns:xlink="http://www.w3.org/1999/xlink" contentStyleType="text/css" height="645px" preserveAspectRatio="none" style="width:751px;height:645px;" version="1.1" viewBox="0 0 751 645" width="751px" zoomAndPan="magnify"><defs/><g><!--class aws_route53_zone--><g id="elem_aws_route53_zone"><rect codeLine="23" fill="#3D176E" height="39.7891" id="aws_route53_zone" rx="2.5" ry="2.5" style="stroke:#000D19;stroke-width:0.5;" width="199" x="7" y="599.55"/><ellipse cx="22" cy="619.4445" fill="#ADD1B2" rx="11" ry="11" style="stroke:#181818;stroke-width:1.0;"/><path d="M24.9688,625.0852 Q24.3906,625.382 23.75,625.5227 Q23.1094,625.6789 22.4063,625.6789 Q19.9063,625.6789 18.5781,624.0383 Q17.2656,622.382 17.2656,619.257 Q17.2656,616.132 18.5781,614.4758 Q19.9063,612.8195 22.4063,612.8195 Q23.1094,612.8195 23.75,612.9758 Q24.4063,613.132 24.9688,613.4289 L24.9688,616.1477 Q24.3438,615.5695 23.75,615.3039 Q23.1563,615.0227 22.5313,615.0227 Q21.1875,615.0227 20.5,616.1008 Q19.8125,617.1633 19.8125,619.257 Q19.8125,621.3508 20.5,622.4289 Q21.1875,623.4914 22.5313,623.4914 Q23.1563,623.4914 23.75,623.2258 Q24.3438,622.9445 24.9688,622.3664 L24.9688,625.0852 Z " fill="#000000"/><text fill="#D9B8FF" font-family="Helvetica" font-size="17" lengthAdjust="spacing" textLength="157" x="41" y="625.3298">aws_route53_zone</text></g><!--class azure_network_dns_zone--><g id="elem_azure_network_dns_zone"><rect codeLine="26" fill="#3D176E" height="39.7891" id="azure_network_dns_zone" rx="2.5" ry="2.5" style="stroke:#000D19;stroke-width:0.5;" width="253" x="241" y="599.55"/><ellipse cx="256" cy="619.4445" fill="#ADD1B2" rx="11" ry="11" style="stroke:#181818;stroke-width:1.0;"/><path d="M258.9688,625.0852 Q258.3906,625.382 257.75,625.5227 Q257.1094,625.6789 256.4063,625.6789 Q253.9063,625.6789 252.5781,624.0383 Q251.2656,622.382 251.2656,619.257 Q251.2656,616.132 252.5781,614.4758 Q253.9063,612.8195 256.4063,612.8195 Q257.1094,612.8195 257.75,612.9758 Q258.4063,613.132 258.9688,613.4289 L258.9688,616.1477 Q258.3438,615.5695 257.75,615.3039 Q257.1563,615.0227 256.5313,615.0227 Q255.1875,615.0227 254.5,616.1008 Q253.8125,617.1633 253.8125,619.257 Q253.8125,621.3508 254.5,622.4289 Q255.1875,623.4914 256.5313,623.4914 Q257.1563,623.4914 257.75,623.2258 Q258.3438,622.9445 258.9688,622.3664 L258.9688,625.0852 Z " fill="#000000"/><text fill="#D9B8FF" font-family="Helvetica" font-size="17" lengthAdjust="spacing" textLength="211" x="275" y="625.3298">azure_network_dns_zone</text></g><!--class digitalocean_domain--><g id="elem_digitalocean_domain"><rect codeLine="29" fill="#3D176E" height="39.7891" id="digitalocean_domain" rx="2.5" ry="2.5" style="stroke:#000D19;stroke-width:0.5;" width="215" x="529" y="599.55"/><ellipse cx="544" cy="619.4445" fill="#ADD1B2" rx="11" ry="11" style="stroke:#181818;stroke-width:1.0;"/><path d="M546.9688,625.0852 Q546.3906,625.382 545.75,625.5227 Q545.1094,625.6789 544.4063,625.6789 Q541.9063,625.6789 540.5781,624.0383 Q539.2656,622.382 539.2656,619.257 Q539.2656,616.132 540.5781,614.4758 Q541.9063,612.8195 544.4063,612.8195 Q545.1094,612.8195 545.75,612.9758 Q546.4063,613.132 546.9688,613.4289 L546.9688,616.1477 Q546.3438,615.5695 545.75,615.3039 Q545.1563,615.0227 544.5313,615.0227 Q543.1875,615.0227 542.5,616.1008 Q541.8125,617.1633 541.8125,619.257 Q541.8125,621.3508 542.5,622.4289 Q543.1875,623.4914 544.5313,623.4914 Q545.1563,623.4914 545.75,623.2258 Q546.3438,622.9445 546.9688,622.3664 L546.9688,625.0852 Z " fill="#000000"/><text fill="#D9B8FF" font-family="Helvetica" font-size="17" lengthAdjust="spacing" textLength="173" x="563" y="625.3298">digitalocean_domain</text></g><!--class dns_zone--><g id="elem_dns_zone"><rect codeLine="32" fill="#3D176E" height="39.7891" id="dns_zone" rx="2.5" ry="2.5" style="stroke:#000D19;stroke-width:0.5;" width="119" x="308" y="438.76"/><ellipse cx="323" cy="458.6545" fill="#ADD1B2" rx="11" ry="11" style="stroke:#181818;stroke-width:1.0;"/><path d="M325.9688,464.2952 Q325.3906,464.592 324.75,464.7327 Q324.1094,464.8889 323.4063,464.8889 Q320.9063,464.8889 319.5781,463.2483 Q318.2656,461.592 318.2656,458.467 Q318.2656,455.342 319.5781,453.6858 Q320.9063,452.0295 323.4063,452.0295 Q324.1094,452.0295 324.75,452.1858 Q325.4063,452.342 325.9688,452.6389 L325.9688,455.3577 Q325.3438,454.7795 324.75,454.5139 Q324.1563,454.2327 323.5313,454.2327 Q322.1875,454.2327 321.5,455.3108 Q320.8125,456.3733 320.8125,458.467 Q320.8125,460.5608 321.5,461.6389 Q322.1875,462.7014 323.5313,462.7014 Q324.1563,462.7014 324.75,462.4358 Q325.3438,462.1545 325.9688,461.5764 L325.9688,464.2952 Z " fill="#000000"/><text fill="#D9B8FF" font-family="Helvetica" font-size="17" lengthAdjust="spacing" textLength="77" x="342" y="464.5398">dns_zone</text></g><!--class resource--><g id="elem_resource"><rect codeLine="35" fill="#3D176E" height="310.7578" id="resource" rx="2.5" ry="2.5" style="stroke:#000D19;stroke-width:0.5;" width="227" x="254" y="7"/><ellipse cx="322.75" cy="26.8945" fill="#ADD1B2" rx="11" ry="11" style="stroke:#181818;stroke-width:1.0;"/><path d="M325.7188,32.5352 Q325.1406,32.832 324.5,32.9727 Q323.8594,33.1289 323.1563,33.1289 Q320.6563,33.1289 319.3281,31.4883 Q318.0156,29.832 318.0156,26.707 Q318.0156,23.582 319.3281,21.9258 Q320.6563,20.2695 323.1563,20.2695 Q323.8594,20.2695 324.5,20.4258 Q325.1563,20.582 325.7188,20.8789 L325.7188,23.5977 Q325.0938,23.0195 324.5,22.7539 Q323.9063,22.4727 323.2813,22.4727 Q321.9375,22.4727 321.25,23.5508 Q320.5625,24.6133 320.5625,26.707 Q320.5625,28.8008 321.25,29.8789 Q321.9375,30.9414 323.2813,30.9414 Q323.9063,30.9414 324.5,30.6758 Q325.0938,30.3945 325.7188,29.8164 L325.7188,32.5352 Z " fill="#000000"/><text fill="#D9B8FF" font-family="Helvetica" font-size="17" lengthAdjust="spacing" textLength="71" x="348.25" y="32.7798">resource</text><line style="stroke:#000D19;stroke-width:0.5;" x1="255" x2="480" y1="46.7891" y2="46.7891"/><text fill="#D9B8FF" font-family="sans-serif" font-size="14" font-weight="bold" lengthAdjust="spacing" textLength="29" x="265" y="68.7842">age</text><text fill="#D9B8FF" font-family="sans-serif" font-size="14" lengthAdjust="spacing" textLength="66" x="294" y="68.7842">: duration</text><text fill="#D9B8FF" font-family="sans-serif" font-size="14" font-weight="bold" lengthAdjust="spacing" textLength="43" x="265" y="95.0811">atime</text><text fill="#D9B8FF" font-family="sans-serif" font-size="14" lengthAdjust="spacing" textLength="70" x="308" y="95.0811">: datetime</text><text fill="#D9B8FF" font-family="sans-serif" font-size="14" font-weight="bold" lengthAdjust="spacing" textLength="43" x="265" y="121.3779">ctime</text><text fill="#D9B8FF" font-family="sans-serif" font-size="14" lengthAdjust="spacing" textLength="70" x="308" y="121.3779">: datetime</text><text fill="#D9B8FF" font-family="sans-serif" font-size="14" font-weight="bold" lengthAdjust="spacing" textLength="14" x="265" y="147.6748">id</text><text fill="#D9B8FF" font-family="sans-serif" font-size="14" lengthAdjust="spacing" textLength="48" x="279" y="147.6748">: string</text><text fill="#D9B8FF" font-family="sans-serif" font-size="14" font-weight="bold" lengthAdjust="spacing" textLength="33" x="265" y="173.9717">kind</text><text fill="#D9B8FF" font-family="sans-serif" font-size="14" lengthAdjust="spacing" textLength="48" x="298" y="173.9717">: string</text><text fill="#D9B8FF" font-family="sans-serif" font-size="14" font-weight="bold" lengthAdjust="spacing" textLength="90" x="265" y="200.2686">last_access</text><text fill="#D9B8FF" font-family="sans-serif" font-size="14" lengthAdjust="spacing" textLength="66" x="355" y="200.2686">: duration</text><text fill="#D9B8FF" font-family="sans-serif" font-size="14" font-weight="bold" lengthAdjust="spacing" textLength="90" x="265" y="226.5654">last_update</text><text fill="#D9B8FF" font-family="sans-serif" font-size="14" lengthAdjust="spacing" textLength="66" x="355" y="226.5654">: duration</text><text fill="#D9B8FF" font-family="sans-serif" font-size="14" font-weight="bold" lengthAdjust="spacing" textLength="48" x="265" y="252.8623">mtime</text><text fill="#D9B8FF" font-family="sans-serif" font-size="14" lengthAdjust="spacing" textLength="70" x="313" y="252.8623">: datetime</text><text fill="#D9B8FF" font-family="sans-serif" font-size="14" font-weight="bold" lengthAdjust="spacing" textLength="43" x="265" y="279.1592">name</text><text fill="#D9B8FF" font-family="sans-serif" font-size="14" lengthAdjust="spacing" textLength="48" x="308" y="279.1592">: string</text><text fill="#D9B8FF" font-family="sans-serif" font-size="14" font-weight="bold" lengthAdjust="spacing" textLength="34" x="265" y="305.4561">tags</text><text fill="#D9B8FF" font-family="sans-serif" font-size="14" lengthAdjust="spacing" textLength="171" x="299" y="305.4561">: dictionary[string, string]</text></g><!--reverse link dns_zone to aws_route53_zone--><g id="link_dns_zone_aws_route53_zone"><path codeLine="47" d="M320.3818,488.3248 C270.1118,518.9048 188.15,568.77 138.02,599.27 " fill="none" id="dns_zone-backto-aws_route53_zone" style="stroke:#FFAF37;stroke-width:2.0;"/><polygon fill="none" points="335.76,478.97,317.2636,483.1987,323.5001,493.4508,335.76,478.97" style="stroke:#FFAF37;stroke-width:2.0;"/></g><!--reverse link dns_zone to azure_network_dns_zone--><g id="link_dns_zone_azure_network_dns_zone"><path codeLine="48" d="M367.5,496.81 C367.5,527.33 367.5,568.66 367.5,599.22 " fill="none" id="dns_zone-backto-azure_network_dns_zone" style="stroke:#FFAF37;stroke-width:2.0;"/><polygon fill="none" points="367.5,478.81,361.5,496.81,373.5,496.81,367.5,478.81" style="stroke:#FFAF37;stroke-width:2.0;"/></g><!--reverse link dns_zone to digitalocean_domain--><g id="link_dns_zone_digitalocean_domain"><path codeLine="49" d="M415.7205,488.1207 C467.5205,518.7007 552.35,568.77 604.01,599.27 " fill="none" id="dns_zone-backto-digitalocean_domain" style="stroke:#FFAF37;stroke-width:2.0;"/><polygon fill="none" points="400.22,478.97,412.6703,493.2875,418.7707,482.9538,400.22,478.97" style="stroke:#FFAF37;stroke-width:2.0;"/></g><!--reverse link resource to dns_zone--><g id="link_resource_dns_zone"><path codeLine="50" d="M367.5,335.85 C367.5,384.14 367.5,413.37 367.5,438.68 " fill="none" id="resource-backto-dns_zone" style="stroke:#FFAF37;stroke-width:2.0;"/><polygon fill="none" points="367.5,317.85,361.5,335.85,373.5,335.85,367.5,317.85" style="stroke:#FFAF37;stroke-width:2.0;"/></g><!--SRC=[XPD1Jy9048Nl_HMRS2EIW4G1uqL9Z5wC4M_6DCFkj6neTydiL0BgVtVN0YbjmLlxtZVpPYRjGYiKcAzu8tBCvqWkSajjLa2GYpiYkvxQp9Be90aamr7TVB26_mMU8KVnYDadifPG9zuMMYuDEYSkAzOzo6LAjZ2gRCy4ndaB3LUeQGREtJ6JdXUCbM7KP3vEaZfPRzePgi7e6XkO9OMqG_hzlXfCwiY_KMVtFX0plKKng1xjsJ8sncn4_55dfmn4PSZ6edl_v8mle9GsgRYgQA_bJ6IGZlJP0fHT1pg1p5LZ72EXvSqAfusjS39MoQWLVZe5HpASJi3QnTvbl1h6MsjGV4NHpzxR5eInGLvRMiRAk0QXTAePCYiHJAni3jeSsIqbXCuM98FMxKAAtUwDK0K1Qsk2mZelDM0CprwJBPfMGN3-UpMfV_MR7mi-YsEGqlyDjOG_frY5NZKdRyanK4g7nWnfsL7BK0QqUI-zYntpuLSzB7xxtUlr6aTk-As7hbCjnuuErzmX-z9V]--></g></svg>

<svg xmlns="http://www.w3.org/2000/svg" width="751" height="645" viewBox="0 0 751 645"><rect width="199" height="39.789" x="7" y="599.55" fill="#3D176E" rx="2.5" ry="2.5" style="stroke:#000d19;stroke-width:.5"/><circle cx="22" cy="619.444" r="11" fill="#ADD1B2" style="stroke:#181818;stroke-width:1"/><path d="M24.969 625.085q-.578.297-1.219.438-.64.156-1.344.156-2.5 0-3.828-1.64-1.312-1.657-1.312-4.782t1.312-4.781q1.328-1.657 3.828-1.657.703 0 1.344.157.656.156 1.219.453v2.719q-.625-.579-1.219-.844-.594-.281-1.219-.281-1.343 0-2.031 1.078-.687 1.062-.687 3.156t.687 3.172q.688 1.062 2.031 1.062.625 0 1.219-.265.594-.282 1.219-.86z"/><text x="41" y="625.33" fill="#D9B8FF" font-family="Helvetica" font-size="17" textLength="157">aws_route53_zone</text><rect width="253" height="39.789" x="241" y="599.55" fill="#3D176E" rx="2.5" ry="2.5" style="stroke:#000d19;stroke-width:.5"/><circle cx="256" cy="619.444" r="11" fill="#ADD1B2" style="stroke:#181818;stroke-width:1"/><path d="M258.969 625.085q-.578.297-1.219.438-.64.156-1.344.156-2.5 0-3.828-1.64-1.312-1.657-1.312-4.782t1.312-4.781q1.328-1.657 3.828-1.657.703 0 1.344.157.656.156 1.219.453v2.719q-.625-.579-1.219-.844-.594-.281-1.219-.281-1.344 0-2.031 1.078-.687 1.062-.687 3.156t.687 3.172q.688 1.062 2.031 1.062.625 0 1.219-.265.594-.282 1.219-.86z"/><text x="275" y="625.33" fill="#D9B8FF" font-family="Helvetica" font-size="17" textLength="211">azure_network_dns_zone</text><rect width="215" height="39.789" x="529" y="599.55" fill="#3D176E" rx="2.5" ry="2.5" style="stroke:#000d19;stroke-width:.5"/><circle cx="544" cy="619.444" r="11" fill="#ADD1B2" style="stroke:#181818;stroke-width:1"/><path d="M546.969 625.085q-.578.297-1.219.438-.64.156-1.344.156-2.5 0-3.828-1.64-1.312-1.657-1.312-4.782t1.312-4.781q1.328-1.657 3.828-1.657.703 0 1.344.157.656.156 1.219.453v2.719q-.625-.579-1.219-.844-.594-.281-1.219-.281-1.343 0-2.031 1.078-.687 1.062-.687 3.156t.687 3.172q.688 1.062 2.031 1.062.625 0 1.219-.265.594-.282 1.219-.86z"/><text x="563" y="625.33" fill="#D9B8FF" font-family="Helvetica" font-size="17" textLength="173">digitalocean_domain</text><rect width="119" height="39.789" x="308" y="438.76" fill="#3D176E" rx="2.5" ry="2.5" style="stroke:#000d19;stroke-width:.5"/><circle cx="323" cy="458.654" r="11" fill="#ADD1B2" style="stroke:#181818;stroke-width:1"/><path d="M325.969 464.295q-.578.297-1.219.438-.64.156-1.344.156-2.5 0-3.828-1.64-1.312-1.657-1.312-4.782t1.312-4.781q1.328-1.656 3.828-1.656.703 0 1.344.156.656.156 1.219.453v2.719q-.625-.579-1.219-.844-.594-.281-1.219-.281-1.344 0-2.031 1.078-.687 1.062-.687 3.156t.687 3.172q.688 1.062 2.031 1.062.625 0 1.219-.265.594-.281 1.219-.86z"/><text x="342" y="464.54" fill="#D9B8FF" font-family="Helvetica" font-size="17" textLength="77">dns_zone</text><rect width="227" height="310.758" x="254" y="7" fill="#3D176E" rx="2.5" ry="2.5" style="stroke:#000d19;stroke-width:.5"/><circle cx="322.75" cy="26.895" r="11" fill="#ADD1B2" style="stroke:#181818;stroke-width:1"/><path d="M325.719 32.535q-.578.297-1.219.438-.64.156-1.344.156-2.5 0-3.828-1.64-1.312-1.657-1.312-4.782t1.312-4.781q1.328-1.656 3.828-1.656.703 0 1.344.156.656.156 1.219.453v2.719q-.625-.578-1.219-.844-.594-.281-1.219-.281-1.344 0-2.031 1.078-.687 1.062-.687 3.156t.687 3.172q.688 1.062 2.031 1.062.625 0 1.219-.265.594-.281 1.219-.86z"/><text x="348.25" y="32.78" fill="#D9B8FF" font-family="Helvetica" font-size="17" textLength="71">resource</text><path d="M255 46.789h225" style="stroke:#000d19;stroke-width:.5"/><text x="265" y="68.784" fill="#D9B8FF" font-family="sans-serif" font-size="14" font-weight="bold" textLength="29">age</text><text x="294" y="68.784" fill="#D9B8FF" font-family="sans-serif" font-size="14" textLength="66">: duration</text><text x="265" y="95.081" fill="#D9B8FF" font-family="sans-serif" font-size="14" font-weight="bold" textLength="43">atime</text><text x="308" y="95.081" fill="#D9B8FF" font-family="sans-serif" font-size="14" textLength="70">: datetime</text><text x="265" y="121.378" fill="#D9B8FF" font-family="sans-serif" font-size="14" font-weight="bold" textLength="43">ctime</text><text x="308" y="121.378" fill="#D9B8FF" font-family="sans-serif" font-size="14" textLength="70">: datetime</text><text x="265" y="147.675" fill="#D9B8FF" font-family="sans-serif" font-size="14" font-weight="bold" textLength="14">id</text><text x="279" y="147.675" fill="#D9B8FF" font-family="sans-serif" font-size="14" textLength="48">: string</text><text x="265" y="173.972" fill="#D9B8FF" font-family="sans-serif" font-size="14" font-weight="bold" textLength="33">kind</text><text x="298" y="173.972" fill="#D9B8FF" font-family="sans-serif" font-size="14" textLength="48">: string</text><text x="265" y="200.269" fill="#D9B8FF" font-family="sans-serif" font-size="14" font-weight="bold" textLength="90">last_access</text><text x="355" y="200.269" fill="#D9B8FF" font-family="sans-serif" font-size="14" textLength="66">: duration</text><text x="265" y="226.565" fill="#D9B8FF" font-family="sans-serif" font-size="14" font-weight="bold" textLength="90">last_update</text><text x="355" y="226.565" fill="#D9B8FF" font-family="sans-serif" font-size="14" textLength="66">: duration</text><text x="265" y="252.862" fill="#D9B8FF" font-family="sans-serif" font-size="14" font-weight="bold" textLength="48">mtime</text><text x="313" y="252.862" fill="#D9B8FF" font-family="sans-serif" font-size="14" textLength="70">: datetime</text><text x="265" y="279.159" fill="#D9B8FF" font-family="sans-serif" font-size="14" font-weight="bold" textLength="43">name</text><text x="308" y="279.159" fill="#D9B8FF" font-family="sans-serif" font-size="14" textLength="48">: string</text><text x="265" y="305.456" fill="#D9B8FF" font-family="sans-serif" font-size="14" font-weight="bold" textLength="34">tags</text><text x="299" y="305.456" fill="#D9B8FF" font-family="sans-serif" font-size="14" textLength="171">: dictionary[string, string]</text><g fill="none"><path d="M320.382 488.325c-50.27 30.58-132.232 80.445-182.362 110.945" style="stroke:#ffaf37;stroke-width:2"/><path d="m335.76 478.97-18.496 4.229 6.236 10.252z" style="stroke:#ffaf37;stroke-width:2"/></g><path fill="none" d="M367.5 496.81v102.41m0-120.41-6 18h12z" style="stroke:#ffaf37;stroke-width:2"/><g fill="none"><path d="M415.72 488.12c51.8 30.58 136.63 80.65 188.29 111.15" style="stroke:#ffaf37;stroke-width:2"/><path d="m400.22 478.97 12.45 14.317 6.1-10.333z" style="stroke:#ffaf37;stroke-width:2"/></g><path fill="none" d="M367.5 335.85v102.83m0-120.83-6 18h12z" style="stroke:#ffaf37;stroke-width:2"/></svg>
